X: 1220
T: Always Happy
B: australian traditional tunes wiki
M:4/4
L:1/8
R: Schottische
Q: 1/4=100
K:D
V:1 
(3FG^G|"D"A>f e>d F>A d>f|"G"e2B2B2 (3BcB|"A"A2g2g2(3gec|"D"A2f2f2 (3FG^G|
"D"A>f e>d F>A d>f|"G"e2B2B2 (3BcB|"A"A>a g>e c>A B>c|"D"(3dcd f>ed2zA|
"G"B2g2g2(3gec|"D"A2f2f3g|"A"f2e2a2e>f|"D"e2d2f2zA|
"G"B2g2g2(3gec|"D"A2f2f3g|"A"f2e2B2c2|"D"(3dAd f>ed2||
% abcbook-tune_id 6342d53aee07cfe56240afcb


% abcbook-boost 0
% abcbook-tablature 
% abcbook-transpose 
% abcbook-lastupdated 1665324354755
% abcbook-soundfonts 
% abcbook-repeats 1
% NFF Book 2018

